gy/si-glyph-faucet.svg

<svg viewBox="0 0 16 16" xmlns="http://www.w3.org/2000/svg" class="si-glyph si-glyph-faucet" height="1em" width="1em">
  <path d="M15.957 14.119c0 1.022-.66 1.851-1.475 1.851-.814 0-1.475-.828-1.475-1.851 0-1.021 1.475-3.119 1.475-3.119s1.475 2.098 1.475 3.119Zm-1.325-7.674c-1.205-1.208-2.851-1.362-4.633-1.382v-.014c0-.533-.373-.967-.834-.967H7.979V2.954c.708-.099 1.278-.47 1.514-.958.262.116.62.189 1.016.189.801 0 1.449-.294 1.449-.659 0-.364-.648-.659-1.449-.659a2.57 2.57 0 0 0-1.004.185C9.239.466 8.49.041 7.598.041c-.87 0-1.604.402-1.888.964-.283-.12-.667-.194-1.093-.194-.871 0-1.575.309-1.575.688 0 .38.704.687 1.575.687.421 0 .801-.073 1.084-.19.21.437.69.775 1.299.914v1.173H5.832c-.459 0-.832.434-.832.967v.01H1.436C.702 5.06.02 5.761.02 6.499c0 .737.596 1.464 1.33 1.464h3.653c.007.527.375.953.83.953h3.333c.451 0 .812-.417.828-.934 1.197.049 2.184.218 2.675.709.277.278.497.648.617 1.268h2.613c-.157-1.405-.518-2.762-1.267-3.514Z" class="si-glyph-fill" fill="#434343" fill-rule="evenodd"/>
</svg>

<svg viewBox="0 0 16 16" version="1.1" xmlns="http://www.w3.org/2000/svg" class="si-glyph si-glyph-faucet" height="1em" width="1em">
  <g stroke="none" stroke-width="1" fill="none" fill-rule="evenodd">
    <g fill="#434343">
      <path d="M15.957,14.119 C15.957,15.141 15.297,15.97 14.482,15.97 C13.668,15.97 13.007,15.142 13.007,14.119 C13.007,13.098 14.482,11 14.482,11 C14.482,11 15.957,13.098 15.957,14.119 L15.957,14.119 Z" class="si-glyph-fill"/>
      <path d="M14.632,6.445 C13.427,5.237 11.781,5.083 9.999,5.063 L9.999,5.049 C9.999,4.516 9.626,4.082 9.165,4.082 L7.979,4.082 L7.979,2.954 C8.687,2.855 9.257,2.484 9.493,1.996 C9.755,2.112 10.113,2.185 10.509,2.185 C11.31,2.185 11.958,1.891 11.958,1.526 C11.958,1.162 11.31,0.867 10.509,0.867 C10.118,0.867 9.766,0.938 9.505,1.052 C9.239,0.466 8.49,0.041 7.598,0.041 C6.728,0.041 5.994,0.443 5.71,1.005 C5.427,0.885 5.043,0.811 4.617,0.811 C3.746,0.811 3.042,1.12 3.042,1.499 C3.042,1.879 3.746,2.186 4.617,2.186 C5.038,2.186 5.418,2.113 5.701,1.996 C5.911,2.433 6.391,2.771 7,2.91 L7,4.083 L5.832,4.083 C5.373,4.083 5,4.517 5,5.05 L5,5.06 L1.436,5.06 C0.702,5.06 0.02,5.761 0.02,6.499 C0.02,7.236 0.616,7.963 1.35,7.963 L5.003,7.963 C5.01,8.49 5.378,8.916 5.833,8.916 L9.166,8.916 C9.617,8.916 9.978,8.499 9.994,7.982 C11.191,8.031 12.178,8.2 12.669,8.691 C12.946,8.969 13.166,9.339 13.286,9.959 L15.899,9.959 C15.742,8.554 15.381,7.197 14.632,6.445 L14.632,6.445 Z" class="si-glyph-fill"/>
    </g>
  </g>
</svg>
